public/assets/services/video.svg

<svg width="60" height="60" viewBox="0 0 60 60" fill="none" xmlns="http://www.w3.org/2000/svg">
<path d="M25.3125 20.8684C25.0269 20.7035 24.7029 20.6169 24.3731 20.6172C24.0434 20.6175 23.7195 20.7048 23.4343 20.8703C23.149 21.0357 22.9124 21.2735 22.7484 21.5595C22.5844 21.8456 22.4987 22.1699 22.5 22.4996V37.4996C22.4987 37.8294 22.5844 38.1537 22.7484 38.4398C22.9124 38.7258 23.149 38.9636 23.4343 39.129C23.7195 39.2945 24.0434 39.3818 24.3731 39.3821C24.7029 39.3824 25.0269 39.2958 25.3125 39.1309L38.4375 31.6309C38.7261 31.4674 38.9661 31.2302 39.1331 30.9436C39.3001 30.6571 39.388 30.3313 39.388 29.9996C39.388 29.668 39.3001 29.3422 39.1331 29.0557C38.9661 28.7691 38.7261 28.5319 38.4375 28.3684L25.3125 20.8684ZM26.25 34.2559V25.7246L33.75 29.9996L26.25 34.2559Z" fill="#5810ff"/>
<path d="M50.625 1.875H9.375C7.38588 1.875 5.47822 2.66518 4.0717 4.0717C2.66518 5.47822 1.875 7.38588 1.875 9.375V50.625C1.875 52.6141 2.66518 54.5218 4.0717 55.9283C5.47822 57.3348 7.38588 58.125 9.375 58.125H50.625C52.6141 58.125 54.5218 57.3348 55.9283 55.9283C57.3348 54.5218 58.125 52.6141 58.125 50.625V43.125H5.625V16.875H58.125V9.375C58.125 7.38588 57.3348 5.47822 55.9283 4.0717C54.5218 2.66518 52.6141 1.875 50.625 1.875ZM45 46.875H54.375V50.625C54.375 51.6196 53.9799 52.5734 53.2766 53.2766C52.5734 53.9799 51.6196 54.375 50.625 54.375H45V46.875ZM31.875 46.875H41.25V54.375H31.875V46.875ZM18.75 46.875H28.125V54.375H18.75V46.875ZM15 46.875V54.375H9.375C8.38044 54.375 7.42661 53.9799 6.72335 53.2766C6.02009 52.5734 5.625 51.6196 5.625 50.625V46.875H15ZM15 13.125H5.625V9.375C5.625 8.38044 6.02009 7.42661 6.72335 6.72335C7.42661 6.02009 8.38044 5.625 9.375 5.625H15V13.125ZM28.125 13.125H18.75V5.625H28.125V13.125ZM41.25 13.125H31.875V5.625H41.25V13.125ZM54.375 13.125H45V5.625H50.625C51.6196 5.625 52.5734 6.02009 53.2766 6.72335C53.9799 7.42661 54.375 8.38044 54.375 9.375V13.125Z" fill="#5810ff"/>
<path d="M54.375 22.5C54.375 22.9973 54.5725 23.4742 54.9242 23.8258C55.2758 24.1775 55.7527 24.375 56.25 24.375C56.7473 24.375 57.2242 24.1775 57.5758 23.8258C57.9275 23.4742 58.125 22.9973 58.125 22.5C58.125 22.0027 57.9275 21.5258 57.5758 21.1742C57.2242 20.8225 56.7473 20.625 56.25 20.625C55.7527 20.625 55.2758 20.8225 54.9242 21.1742C54.5725 21.5258 54.375 22.0027 54.375 22.5Z" fill="#5810ff"/>
<path d="M56.25 28.125C55.7527 28.125 55.2758 28.3225 54.9242 28.6742C54.5725 29.0258 54.375 29.5027 54.375 30V37.5C54.375 37.9973 54.5725 38.4742 54.9242 38.8258C55.2758 39.1775 55.7527 39.375 56.25 39.375C56.7473 39.375 57.2242 39.1775 57.5758 38.8258C57.9275 38.4742 58.125 37.9973 58.125 37.5V30C58.125 29.5027 57.9275 29.0258 57.5758 28.6742C57.2242 28.3225 56.7473 28.125 56.25 28.125Z" fill="#5810ff"/>
</svg>

<?xml version="1.0" encoding="utf-8"?>
<!-- Generator: Adobe Illustrator 28.4.1, SVG Export Plug-In . SVG Version: 6.00 Build 0)  -->
<svg version="1.1" id="Layer_1" xmlns="http://www.w3.org/2000/svg" xmlns:xlink="http://www.w3.org/1999/xlink" x="0px" y="0px"
	 viewBox="0 0 60 60" style="enable-background:new 0 0 60 60;" xml:space="preserve">
<style type="text/css">
	.st0{fill:#7BC3E1;}
</style>
<path class="st0" d="M25.3,20.9c-0.3-0.2-0.6-0.3-0.9-0.3c-0.3,0-0.7,0.1-0.9,0.3c-0.3,0.2-0.5,0.4-0.7,0.7
	c-0.2,0.3-0.2,0.6-0.2,0.9v15c0,0.3,0.1,0.7,0.2,0.9c0.2,0.3,0.4,0.5,0.7,0.7c0.3,0.2,0.6,0.3,0.9,0.3c0.3,0,0.7-0.1,0.9-0.3
	l13.1-7.5c0.3-0.2,0.5-0.4,0.7-0.7c0.2-0.3,0.3-0.6,0.3-0.9c0-0.3-0.1-0.7-0.3-0.9c-0.2-0.3-0.4-0.5-0.7-0.7L25.3,20.9z M26.2,34.3
	v-8.5l7.5,4.3L26.2,34.3z"/>
<path class="st0" d="M50.6,1.9H9.4c-2,0-3.9,0.8-5.3,2.2S1.9,7.4,1.9,9.4v41.2c0,2,0.8,3.9,2.2,5.3c1.4,1.4,3.3,2.2,5.3,2.2h41.2
	c2,0,3.9-0.8,5.3-2.2c1.4-1.4,2.2-3.3,2.2-5.3v-7.5H5.6V16.9h52.5V9.4c0-2-0.8-3.9-2.2-5.3C54.5,2.7,52.6,1.9,50.6,1.9z M45,46.9
	h9.4v3.8c0,1-0.4,1.9-1.1,2.7c-0.7,0.7-1.7,1.1-2.7,1.1H45V46.9z M31.9,46.9h9.4v7.5h-9.4V46.9z M18.8,46.9h9.4v7.5h-9.4V46.9z
	 M15,46.9v7.5H9.4c-1,0-1.9-0.4-2.7-1.1c-0.7-0.7-1.1-1.7-1.1-2.7v-3.8H15z M15,13.1H5.6V9.4c0-1,0.4-1.9,1.1-2.7s1.7-1.1,2.7-1.1
	H15V13.1z M28.1,13.1h-9.4V5.6h9.4V13.1z M41.2,13.1h-9.4V5.6h9.4V13.1z M54.4,13.1H45V5.6h5.6c1,0,1.9,0.4,2.7,1.1
	c0.7,0.7,1.1,1.7,1.1,2.7V13.1z"/>
<path class="st0" d="M54.4,22.5c0,0.5,0.2,1,0.5,1.3c0.4,0.4,0.8,0.5,1.3,0.5s1-0.2,1.3-0.5c0.4-0.4,0.5-0.8,0.5-1.3s-0.2-1-0.5-1.3
	c-0.4-0.4-0.8-0.5-1.3-0.5s-1,0.2-1.3,0.5C54.6,21.5,54.4,22,54.4,22.5z"/>
<path class="st0" d="M56.2,28.1c-0.5,0-1,0.2-1.3,0.5c-0.4,0.4-0.5,0.8-0.5,1.3v7.5c0,0.5,0.2,1,0.5,1.3c0.4,0.4,0.8,0.5,1.3,0.5
	s1-0.2,1.3-0.5c0.4-0.4,0.5-0.8,0.5-1.3V30c0-0.5-0.2-1-0.5-1.3C57.2,28.3,56.7,28.1,56.2,28.1z"/>
</svg>
